X:1
T:[ID 8-82][ID 2-11a](Trio)
T:[ID 8-82][ID 2-11a](Trio)
T:Bezeichnung standardisiert: Menuet [mit Trio] Menuetto [mit Trio]
T:Urheber unbekannt Erstbeleg: 1792 (Datum in der schriftlichen Quelle) Datum in der hier transkribierten schriftlichen Quelle: 1796
C:Urheber unbekannt
C:Erstbeleg: 1792 (Datum in der schriftlichen Quelle)
C:Datum in der hier transkribierten schriftlichen Quelle: 1796
L:1/8
M:3/4
K:D
V:1 treble 
V:1
 D2 D2 D2 | FDAF d2 |"^*" d2 d2 (3dcB | A2 G2 F2 | A2 A2 A2 | cAec a2 | (3fed c2 B2 | A6 :: %8
 e z c z A z | G z E z C z | DFAd fd | A3 G F2 |!f! a2 a2 fa | g2 g2 eg | f2 d2 c2 | d6 :| %16
[M:3/4]"^Trio"!p! !fermata!A2 A2 A2 | B2 B2 B2 |!f! gfgedc | d2 f2 a2 |!p! A2 A2 A2 | B2 B2 B2 | %22
 g2 e2 c2 | d6 ::!f! afafaf | A2 A2 A2 | gfedcB | A3 G F2 | FAFAFA | GBGBGB | g2 e2 c2 | d6 :| %32
 x6!D.C.! | %33

